X: 558
%
T: Ridhle Thulichun
T: (Reel of Tulloch)
C:
O:Scotland
B:Keith Norman MacDonald : "The Skye collection of the best reels & strathspeys extant" : 1887
Z:Ralph Palmer
R:Strathspey and Reel
M:C
L:1/8
K:A
!f!(a/2f/2) !segno!| {gf}e2 Ac/2d/2 e>cA>a | {gf}e2 Ac/2d/2 d>B=G>f | {gf}e2 Ac/2d/2 e>Ac>A | (BE) E/2E/2E d>B=G :]
B | c>A (c/2d/2e) cAAB | (c>A) (c/2d/2e) d>BG>B | c>A c/2d/2e c>Ac>A | BE E/2E/2E d>B=GB |
cA c/2d/2e {/d}T(c<A)AB | cA c/2d/2e (d<B)=GB | cA c/2d/2e {/d}T(c<A){/d}(c<A) | (BE) c/2d/2e d<B=GB !segno!|]
W:The Reel of Tulloch should be played first as a Strathspey and then as a Reel followed by
W:Stumpie and The Deil among the Tailors a welcome combination to enthusiastic dancers.


